X:113
T:Cameronian Rant, The
R:Reel
B:The Athole Collection
M:C|
L:1/8
K:F
f|cF F/F/F cFAF|cF F/F/F c2 Ac|BG G/G/G BGAG|BG G/G/G c2 A:|
G|Fffg fdcA|Fffg fdcA|Ggga gfed|gfga gfed|dffg fdcA|FAcf e2 cf|
e/f/g df e/f/g de|fgag fcd||
|:f|cFdF cFAf|cF F/F/F c2 Ac|BGdG BGAG|BG G/G/G c2A:|
G|Fffg fdcA|Fffg fdcA|Ggga gfed|gfga gfed|cffg fdcA|FAcf e2 cf|
e/f/g df e/f/g de|fgag fcd||

